X: 759
T: Old Tennessee River
C:Bill Monroe/Jimmy Campbell
B: jims roots
M:4/4
L:1/16
R: E Mixolydian more or less
Q: 1/4=100
K:Emix
V:1 
BdBd ||"E"_B=B2A BdBd E3D  EGEG | "D"D2y{=G}^G2 y{=G}^G2ED "E"B,3A BdBd  |
_B=B3A BdBd E2B,D EGB^d |  "B"B3B dBd2 B3A BdBd ||
"E"_B=B2A BdBd E3D  EGEG | "D"D2y{=G}^G2 y{=G}^G2ED "E"B,4- B,DEG |
{_B}=B6 B_B "B"A=GED =G^GEC | "E"E4- EDEF EDBA BdBd |]
"E"e2ee =geg^g edBd AGEG | _B=B2d AGED EDBA BdBd |
e2ee =geg^g edBG EGAd | "B"B2BB dBd2 B2BA BdBd ||
"E"{d}e4 e4 [e=g]e2e- eged | B3d AGED EDB,C EGAd |
{_B}=B6B_B "B"AGED =G^GED | "E"E4 EDEF E2ED BcBG |]
"E"E4 ABAF "D"D4 BcBG | "E"E2ED B,DED =G^G2A BcBG |
E4 ABAF "D"D4 B,CEG | "B"B4 c^dB{=d}^d B3A B=dBd ||
"E"AB2A BdBd E3D EGEG | "D"D2{=G}^G2 y{=G}^G2ED "B"B,4 B,CEG |
{_B}=B6B_B "B"AGED =G^GED | "E"E4 EDEF E4 z4 |]
% abcbook-tune_id 6298c279d535e4583a63710e


% abcbook-boost 0
% abcbook-tablature 
% abcbook-transpose 
% abcbook-lastupdated 1654178426122
% abcbook-soundfonts 
% abcbook-repeats 1


